!!!OTL: Das alte Weib (197d), S. 431
!!!id: T0379
**kern
*clefG2
*k[b-]
*F:
{8cc
=1
8dd
8cc
8b-
8g
=2
8f
8a
8a}
=3
{8a
=4
8b-
8b-
8b-
8dd
=5
4cc}
8r
=6
{8cc
=7
8dd
8cc
8b-
8g
=8
8f
8a
8a}
=9
{8a
=10
8g
8g
8cc
8cc
=11
4f}
8r
=12
{8cc
=13
8dd
8cc
8b-
8g
=14
8f
8a
8a
8a
=15
8b-
8b-
8b-
8dd
=16
8cc}
4r
=17
{8cc
=18
8dd
8cc
8b-
8g
=19
8f
8a
8a}
=20
{8a
=21
8g
8g
8cc
8cc
=22
4f}
8r
==
*-
!!!minrhy: 8
!!!meters: 2/4 ]  ZZ[7
!!!cut: Das alte Weib (197d), S. 431
!!!reg: Luxemburg
!!!trd: Singendes Volk, Esch-Alzette, 1937 posth.
!!!rhy1: X  XXXX  XXX
!!!rhy2: X  XXXX  X_0
!!!key: T0379  08  F 2/4 ]  ZZ[7
!!!mod: SECHSTONSKALA DUR ?]  AMBITUS[6
!!!kad: 3531531
!!!akz: 61_45_61_21_6145_61_21_
!!!fot: 'a__b__a__c__av_a__c__
!!!for: 'a__aw_a__aw_aw_a__aw_
!!!fok: 'Vd_/__Vd_^d_V__Vd_^d_
!! PHRAS[AUFTAKTIG]
!!!fkt: Hochzeits-, Ehestandslied
!!!bem: Heffingen, hhh Nikolaus Ewen, 2.6.1935
!! THILL; Mathias
!! PR[23] 2K[2] 2G[3] 3K[18] 3G[7] 4A[3] 4Ü[0] 5A[2] 6K[0] 6G[2]
!! 7K[0] 7G[0] 8A[0] MEHR[0] SI[36] ABS[61] SR[5] SP[31]
!! ST[20] 2k[11] 2g[16] 3k[2] 3g[2] 4d[2] 4ü[0] 5d[7] 6k[2] 6g[0]
!! 7k[0] 7g[0] 8d[0] mehr[0] si[41] dm[-5] sr[28] sp[13]
!! 1F[6] 2F[74] 3F[14] 4F[0] LF[0] 2P[0] 3P[6] 4P[0] TRI[0] DF[4] AB[65]
!! TF[0] U3K[0] U3[2] U4[2] U4Ü[0] U5[18] U6K[0] U6[3] U7K[0] U7[11]
!! N1[21] N2K[0] N2[13] N3K[0] N3[11] N4[8] N4Ü[0] N5[8] N6K[0] N6[3]
!!!n7k: 0] N7[0] O1[0] O2K[0] O2[0] O3K[0] O3[0] HÖ[0
